; generated by Slic3r 1.2.9 on 2020-09-26 at 21:58:37

; external perimeters extrusion width = 0.50mm
; perimeters extrusion width = 0.72mm
; infill extrusion width = 0.72mm
; solid infill extrusion width = 0.72mm
; top infill extrusion width = 0.72mm

M107
M104 S200 ; set temperature
G28 ; home all axes
G1 Z5 F5000 ; lift nozzle

M109 S200 ; wait for temperature to be reached
G21 ; set units to millimeters
G90 ; use absolute coordinates
M82 ; use absolute distances for extrusion
G92 E0
G1 Z0.500 F7800.000
G1 E-2.00000 F2400.00000
G92 E0
G1 X79.650 Y80.654 F7800.000
G1 E2.00000 F2400.00000
G1 X81.412 Y79.115 E2.14774 F1800.000
G1 X83.587 Y78.254 E2.29548
G1 X85.000 Y78.107 E2.38516
G1 X115.000 Y78.107 E4.27953
G1 X117.306 Y78.504 E4.42727
G1 X119.346 Y79.650 E4.57501 F1800.000
G1 X120.885 Y81.412 E4.72275
G1 X121.746 Y83.587 E4.87049
G1 X121.893 Y85.000 E4.96017
G1 X121.893 Y115.000 E6.85454
G1 X121.496 Y117.306 E7.00228
G1 X120.350 Y119.346 E7.15002
G1 X118.588 Y120.885 E7.29776
G1 X116.413 Y121.746 E7.44550
G1 X115.000 Y121.893 E7.53518
G1 X85.000 Y121.893 E9.42955
G1 X82.694 Y121.496 E9.57729
G1 X80.654 Y120.350 E9.72503
G1 X79.115 Y118.588 E9.87277
G1 X78.254 Y116.413 E10.02051
G1 X78.107 Y115.000 E10.11019
G1 X78.107 Y85.000 E12.00456
G1 X78.504 Y82.694 E12.15230
G1 X79.613 Y80.720 E12.29531
G1 E10.29531 F2400.00000
G92 E0
G1 X112.715 Y112.715 F7800.000
G1 E2.00000 F2400.00000
G1 X87.285 Y112.715 E3.60574 F1800.000
G1 X87.285 Y87.285 E5.21148
G1 X112.715 Y87.285 E6.81722
G1 X112.715 Y112.640 E8.41823
G1 X113.607 Y113.607 F7800.000
G1 X86.393 Y113.607 E10.13671 F1800.000
G1 X86.393 Y86.393 E11.85519
G1 X113.607 Y86.393 E13.57367
G1 X113.607 Y113.532 E15.28741
G1 X114.500 Y114.500 F7800.000
G1 X85.500 Y114.500 E17.11863 F1800.000
G1 X85.500 Y85.500 E18.94986
G1 X114.500 Y85.500 E20.78108
G1 X114.500 Y114.425 E22.60756
G1 X114.067 Y114.250 F7800.000
G1 X112.165 Y88.254 F7800.000
G1 X111.746 Y87.835 E22.64584 F1800.000
G1 X110.454 Y87.835 E22.72940
G1 X112.165 Y89.546 E22.88586
G1 X112.165 Y90.839 E22.96942
G1 X109.161 Y87.835 E23.24405
G1 X107.869 Y87.835 E23.32761
G1 X112.165 Y92.131 E23.72041
G1 X112.165 Y93.424 E23.80397
G1 X106.576 Y87.835 E24.31494
G1 X105.284 Y87.835 E24.39850
G1 X112.165 Y94.716 E25.02764
G1 X112.165 Y96.009 E25.11120
G1 X103.991 Y87.835 E25.85852
G1 X102.699 Y87.835 E25.94208
G1 X112.165 Y97.301 E26.80756
G1 X112.165 Y98.594 E26.89112
G1 X101.406 Y87.835 E27.87478
G1 X100.114 Y87.835 E27.95834
G1 X112.165 Y99.886 E29.06017
G1 X112.165 Y101.179 E29.14373
G1 X98.821 Y87.835 E30.36373
G1 X97.529 Y87.835 E30.44729
G1 X112.165 Y102.471 E31.78546
G1 X112.165 Y103.764 E31.86902
G1 X96.236 Y87.835 E33.32537
G1 X94.944 Y87.835 E33.40893
G1 X112.165 Y105.056 E34.98344
G1 X112.165 Y106.349 E35.06700
G1 X93.651 Y87.835 E36.75969
G1 X92.359 Y87.835 E36.84325
G1 X112.165 Y107.641 E38.65411
G1 X112.165 Y108.934 E38.73767
G1 X91.066 Y87.835 E40.66670
G1 X89.774 Y87.835 E40.75026
G1 X112.165 Y110.226 E42.79747
G1 X112.165 Y111.519 E42.88103
G1 X88.481 Y87.835 E45.04640
G1 X87.835 Y88.481 E45.10549
G1 X111.519 Y112.165 E47.27086
G1 X110.226 Y112.165 E47.35442
G1 X87.835 Y89.774 E49.40162
G1 X87.835 Y91.066 E49.48518
G1 X108.934 Y112.165 E51.41421
G1 X107.641 Y112.165 E51.49777
G1 X87.835 Y92.359 E53.30863
G1 X87.835 Y93.651 E53.39219
G1 X106.349 Y112.165 E55.08488
G1 X105.056 Y112.165 E55.16844
G1 X87.835 Y94.944 E56.74296
G1 X87.835 Y96.236 E56.82652
G1 X103.764 Y112.165 E58.28286
G1 X102.471 Y112.165 E58.36642
G1 X87.835 Y97.529 E59.70459
G1 X87.835 Y98.821 E59.78815
G1 X101.179 Y112.165 E61.00815
G1 X99.886 Y112.165 E61.09171
G1 X87.835 Y100.114 E62.19354
G1 X87.835 Y101.406 E62.27710
G1 X98.594 Y112.165 E63.26076
G1 X97.301 Y112.165 E63.34432
G1 X87.835 Y102.699 E64.20981
G1 X87.835 Y103.991 E64.29337
G1 X96.009 Y112.165 E65.04068
G1 X94.716 Y112.165 E65.12424
G1 X87.835 Y105.284 E65.75338
G1 X87.835 Y106.576 E65.83694
G1 X93.424 Y112.165 E66.34791
G1 X92.131 Y112.165 E66.43147
G1 X87.835 Y107.869 E66.82427
G1 X87.835 Y109.161 E66.90783
G1 X90.839 Y112.165 E67.18246
G1 X89.546 Y112.165 E67.26602
G1 X87.835 Y110.454 E67.42247
G1 X87.835 Y111.746 E67.50603
G1 X88.254 Y112.165 E67.54432
G1 Z0.800 F7800.000
G1 X113.550 Y113.550 F7800.000
G1 X86.450 Y113.550 E68.29712 F3600.000
G1 X86.450 Y86.450 E69.04992
G1 X113.550 Y86.450 E69.80273
G1 X113.550 Y113.475 E70.55344
G1 X114.205 Y114.205 F7800.000
G1 X85.795 Y114.205 E71.34261 F3600.000
G1 X85.795 Y85.795 E72.13177
G1 X114.205 Y85.795 E72.92093
G1 X114.205 Y114.130 E73.70801
G1 X114.750 Y114.750 F7800.000
G1 X85.250 Y114.750 E74.25342 F1800.000
G1 X85.250 Y85.250 E74.79882
G1 X114.750 Y85.250 E75.34423
G1 X114.750 Y114.675 E75.88824
G1 X114.317 Y114.500 F7800.000
G1 X112.835 Y113.153 F7800.000
G1 X113.153 Y112.835 E75.90076 F1200.000
G1 X113.153 Y111.907 E75.92661
G1 X111.907 Y113.153 E75.97569
G1 X110.979 Y113.153 E76.00154
G1 X113.153 Y110.979 E76.08718
G1 X113.153 Y110.051 E76.11303
G1 X110.051 Y113.153 E76.23523
G1 X109.123 Y113.153 E76.26108
G1 X113.153 Y109.123 E76.41985
G1 X113.153 Y108.195 E76.44570
G1 X108.195 Y113.153 E76.64102
G1 X107.266 Y113.153 E76.66688
G1 X113.153 Y107.266 E76.89876
G1 X113.153 Y106.338 E76.92461
G1 X106.338 Y113.153 E77.19306
G1 X105.410 Y113.153 E77.21891
G1 X113.153 Y105.410 E77.52392
G1 X113.153 Y104.482 E77.54978
G1 X104.482 Y113.153 E77.89135
G1 X103.554 Y113.153 E77.91720
G1 X113.153 Y103.554 E78.29533
G1 X113.153 Y102.626 E78.32119
G1 X102.626 Y113.153 E78.73588
G1 X101.697 Y113.153 E78.76173
G1 X113.153 Y101.697 E79.21299
G1 X113.153 Y100.769 E79.23884
G1 X100.769 Y113.153 E79.72666
G1 X99.841 Y113.153 E79.75252
G1 X113.153 Y99.841 E80.27690
G1 X113.153 Y98.913 E80.30275
G1 X98.913 Y113.153 E80.86369
G1 X97.985 Y113.153 E80.88955
G1 X113.153 Y97.985 E81.48705
G1 X113.153 Y97.057 E81.51290
G1 X97.057 Y113.153 E82.14697
G1 X96.129 Y113.153 E82.17282
G1 X113.153 Y96.129 E82.84345
G1 X113.153 Y95.200 E82.86930
G1 X95.200 Y113.153 E83.57649
G1 X94.272 Y113.153 E83.60235
G1 X113.153 Y94.272 E84.34610
G1 X113.153 Y93.344 E84.37195
G1 X93.344 Y113.153 E85.15226
G1 X92.416 Y113.153 E85.17812
G1 X113.153 Y92.416 E85.99499
G1 X113.153 Y91.488 E86.02085
G1 X91.488 Y113.153 E86.87428
G1 X90.560 Y113.153 E86.90014
G1 X113.153 Y90.560 E87.79013
G1 X113.153 Y89.631 E87.81599
G1 X89.631 Y113.153 E88.74255
G1 X88.703 Y113.153 E88.76840
G1 X113.153 Y88.703 E89.73153
G1 X113.153 Y87.775 E89.75738
G1 X87.775 Y113.153 E90.75706
G1 X86.867 Y113.133 E90.78236
G1 X113.133 Y86.867 E91.81704
G1 X112.225 Y86.847 E91.84234
G1 X86.847 Y112.225 E92.84202
G1 X86.847 Y111.297 E92.86787
G1 X111.297 Y86.847 E93.83100
G1 X110.368 Y86.847 E93.85685
G1 X86.847 Y110.369 E94.78341
G1 X86.847 Y109.440 E94.80926
G1 X109.440 Y86.847 E95.69926
G1 X108.512 Y86.847 E95.72511
G1 X86.847 Y108.512 E96.57855
G1 X86.847 Y107.584 E96.60440
G1 X107.584 Y86.847 E97.42128
G1 X106.656 Y86.847 E97.44713
G1 X86.847 Y106.656 E98.22744
G1 X86.847 Y105.728 E98.25329
G1 X105.728 Y86.847 E98.99704
G1 X104.800 Y86.847 E99.02290
G1 X86.847 Y104.800 E99.73009
G1 X86.847 Y103.871 E99.75594
G1 X103.871 Y86.847 E100.42656
G1 X102.943 Y86.847 E100.45242
G1 X86.847 Y102.943 E101.08648
G1 X86.847 Y102.015 E101.11234
G1 X102.015 Y86.847 E101.70984
G1 X101.087 Y86.847 E101.73569
G1 X86.847 Y101.087 E102.29663
G1 X86.847 Y100.159 E102.32249
G1 X100.159 Y86.847 E102.84686
G1 X99.231 Y86.847 E102.87272
G1 X86.847 Y99.231 E103.36053
G1 X86.847 Y98.303 E103.38639
G1 X98.303 Y86.847 E103.83764
G1 X97.374 Y86.847 E103.86350
G1 X86.847 Y97.374 E104.27819
G1 X86.847 Y96.446 E104.30404
G1 X96.446 Y86.847 E104.68217
G1 X95.518 Y86.847 E104.70803
G1 X86.847 Y95.518 E105.04960
G1 X86.847 Y94.590 E105.07545
G1 X94.590 Y86.847 E105.38046
G1 X93.662 Y86.847 E105.40631
G1 X86.847 Y93.662 E105.67476
G1 X86.847 Y92.734 E105.70061
G1 X92.734 Y86.847 E105.93249
G1 X91.805 Y86.847 E105.95835
G1 X86.847 Y91.805 E106.15367
G1 X86.847 Y90.877 E106.17952
G1 X90.877 Y86.847 E106.33828
G1 X89.949 Y86.847 E106.36414
G1 X86.847 Y89.949 E106.48633
G1 X86.847 Y89.021 E106.51219
G1 X89.021 Y86.847 E106.59782
G1 X88.093 Y86.847 E106.62368
G1 X86.847 Y88.093 E106.67275
G1 X86.847 Y87.165 E106.69860
G1 X87.165 Y86.847 E106.71112
G1 Z1.100 F7800.000
G1 X113.550 Y113.550 F7800.000
G1 X86.450 Y113.550 E107.46392 F3600.000
G1 X86.450 Y86.450 E108.21672
G1 X113.550 Y86.450 E108.96952
G1 X113.550 Y113.475 E109.72024
G1 X114.205 Y114.205 F7800.000
G1 X85.795 Y114.205 E110.50941 F3600.000
G1 X85.795 Y85.795 E111.29857
G1 X114.205 Y85.795 E112.08773
G1 X114.205 Y114.130 E112.87481
G1 X114.750 Y114.750 F7800.000
G1 X85.250 Y114.750 E113.42022 F1800.000
G1 X85.250 Y85.250 E113.96562
G1 X114.750 Y85.250 E114.51102
G1 X114.750 Y114.675 E115.05504
G1 X114.317 Y114.500 F7800.000
G1 X113.153 Y87.165 F7800.000
G1 X112.835 Y86.847 E115.06756 F1200.000
G1 X111.907 Y86.847 E115.09341
G1 X113.153 Y88.093 E115.14249
G1 X113.153 Y89.021 E115.16834
G1 X110.979 Y86.847 E115.25398
G1 X110.051 Y86.847 E115.27983
G1 X113.153 Y89.949 E115.40203
G1 X113.153 Y90.877 E115.42788
G1 X109.123 Y86.847 E115.58664
G1 X108.195 Y86.847 E115.61250
G1 X113.153 Y91.805 E115.80782
G1 X113.153 Y92.734 E115.83367
G1 X107.266 Y86.847 E116.06556
G1 X106.338 Y86.847 E116.09141
G1 X113.153 Y93.662 E116.35986
G1 X113.153 Y94.590 E116.38571
G1 X105.410 Y86.847 E116.69072
G1 X104.482 Y86.847 E116.71657
G1 X113.153 Y95.518 E117.05815
G1 X113.153 Y96.446 E117.08400
G1 X103.554 Y86.847 E117.46213
G1 X102.626 Y86.847 E117.48798
G1 X113.153 Y97.374 E117.90268
G1 X113.153 Y98.303 E117.92853
G1 X101.697 Y86.847 E118.37979
G1 X100.769 Y86.847 E118.40564
G1 X113.153 Y99.231 E118.89346
G1 X113.153 Y100.159 E118.91931
G1 X99.841 Y86.847 E119.44369
G1 X98.913 Y86.847 E119.46955
G1 X113.153 Y101.087 E120.03049
G1 X113.153 Y102.015 E120.05634
G1 X97.985 Y86.847 E120.65385
G1 X97.057 Y86.847 E120.67970
G1 X113.153 Y102.943 E121.31377
G1 X113.153 Y103.871 E121.33962
G1 X96.129 Y86.847 E122.01025
G1 X95.200 Y86.847 E122.03610
G1 X113.153 Y104.800 E122.74329
G1 X113.153 Y105.728 E122.76914
G1 X94.272 Y86.847 E123.51290
G1 X93.344 Y86.847 E123.53875
G1 X113.153 Y106.656 E124.31906
G1 X113.153 Y107.584 E124.34491
G1 X92.416 Y86.847 E125.16179
G1 X91.488 Y86.847 E125.18764
G1 X113.153 Y108.512 E126.04108
G1 X113.153 Y109.440 E126.06693
G1 X90.560 Y86.847 E126.95693
G1 X89.631 Y86.847 E126.98279
G1 X113.153 Y110.369 E127.90935
G1 X113.153 Y111.297 E127.93520
G1 X88.703 Y86.847 E128.89832
G1 X87.775 Y86.847 E128.92418
G1 X113.153 Y112.225 E129.92386
G1 X113.133 Y113.133 E129.94916
G1 X86.867 Y86.867 E130.98383
G1 X86.847 Y87.775 E131.00914
G1 X112.225 Y113.153 E132.00882
G1 X111.297 Y113.153 E132.03467
G1 X86.847 Y88.703 E132.99779
G1 X86.847 Y89.631 E133.02365
G1 X110.369 Y113.153 E133.95021
G1 X109.440 Y113.153 E133.97606
G1 X86.847 Y90.560 E134.86606
G1 X86.847 Y91.488 E134.89191
G1 X108.512 Y113.153 E135.74535
G1 X107.584 Y113.153 E135.77120
G1 X86.847 Y92.416 E136.58807
G1 X86.847 Y93.344 E136.61393
G1 X106.656 Y113.153 E137.39424
G1 X105.728 Y113.153 E137.42009
G1 X86.847 Y94.272 E138.16384
G1 X86.847 Y95.200 E138.18970
G1 X104.800 Y113.153 E138.89688
G1 X103.871 Y113.153 E138.92274
G1 X86.847 Y96.129 E139.59336
G1 X86.847 Y97.057 E139.61922
G1 X102.943 Y113.153 E140.25328
G1 X102.015 Y113.153 E140.27913
G1 X86.847 Y97.985 E140.87664
G1 X86.847 Y98.913 E140.90249
G1 X101.087 Y113.153 E141.46343
G1 X100.159 Y113.153 E141.48928
G1 X86.847 Y99.841 E142.01366
G1 X86.847 Y100.769 E142.03952
G1 X99.231 Y113.153 E142.52733
G1 X98.303 Y113.153 E142.55319
G1 X86.847 Y101.697 E143.00444
G1 X86.847 Y102.626 E143.03029
G1 X97.374 Y113.153 E143.44499
G1 X96.446 Y113.153 E143.47084
G1 X86.847 Y103.554 E143.84897
G1 X86.847 Y104.482 E143.87483
G1 X95.518 Y113.153 E144.21640
G1 X94.590 Y113.153 E144.24225
G1 X86.847 Y105.410 E144.54726
G1 X86.847 Y106.338 E144.57311
G1 X93.662 Y113.153 E144.84155
G1 X92.734 Y113.153 E144.86741
G1 X86.847 Y107.266 E145.09929
G1 X86.847 Y108.195 E145.12515
G1 X91.805 Y113.153 E145.32047
G1 X90.877 Y113.153 E145.34632
G1 X86.847 Y109.123 E145.50508
G1 X86.847 Y110.051 E145.53093
G1 X89.949 Y113.153 E145.65313
G1 X89.021 Y113.153 E145.67899
G1 X86.847 Y110.979 E145.76462
G1 X86.847 Y111.907 E145.79047
G1 X88.093 Y113.153 E145.83955
G1 X87.165 Y113.153 E145.86540
G1 X86.847 Y112.835 E145.87791
M106 S234.6
G1 Z1.400 F7800.000
G1 X113.550 Y113.550 F7800.000
G1 X86.450 Y113.550 E146.63072 F3600.000
G1 X86.450 Y86.450 E147.38352
G1 X113.550 Y86.450 E148.13632
G1 X113.550 Y113.475 E148.88704
G1 X114.205 Y114.205 F7800.000
G1 X85.795 Y114.205 E149.67620 F3600.000
G1 X85.795 Y85.795 E150.46537
G1 X114.205 Y85.795 E151.25453
G1 X114.205 Y114.130 E152.04161
G1 X114.750 Y114.750 F7800.000
G1 X85.250 Y114.750 E152.58702 F1800.000
G1 X85.250 Y85.250 E153.13242
G1 X114.750 Y85.250 E153.67782
G1 X114.750 Y114.675 E154.22184
G1 X114.317 Y114.500 F7800.000
G1 X112.994 Y108.955 F7800.000
G1 X110.799 Y108.367 E154.28495 F4800.000
G1 X107.860 Y111.306 E154.40041
G1 X108.313 Y112.994 E154.44897
G1 X112.994 Y112.994 E154.57901
G1 X112.994 Y108.955 E154.69122
G1 X112.994 Y102.179 F7800.000
G1 X112.994 Y96.916 E154.83741 F4800.000
G1 X111.248 Y98.662 E154.90599
G1 X112.031 Y101.582 E154.98996
G1 X109.091 Y104.521 E155.10542
G1 X106.171 Y103.739 E155.18940
G1 X103.232 Y106.678 E155.30486
G1 X104.015 Y109.598 E155.38883
G1 X101.076 Y112.537 E155.50429
G1 X98.156 Y111.755 E155.58826
G1 X96.916 Y112.994 E155.63696
G1 X101.544 Y112.994 E155.76552
G1 X104.478 Y110.061 E155.88076
G1 X107.398 Y110.843 E155.96473
G1 X110.337 Y107.904 E156.08019
G1 X109.554 Y104.984 E156.16417
G1 X112.493 Y102.045 E156.27963
G1 X112.994 Y102.179 E156.29403
G1 X112.479 Y91.877 F7800.000
G1 X109.559 Y91.095 E156.37800 F4800.000
G1 X106.620 Y94.034 E156.49346
G1 X107.403 Y96.954 E156.57743
G1 X104.463 Y99.893 E156.69289
G1 X101.543 Y99.111 E156.77687
G1 X98.604 Y102.050 E156.89233
G1 X99.387 Y104.970 E156.97630
G1 X96.448 Y107.909 E157.09176
G1 X93.528 Y107.126 E157.17573
G1 X90.588 Y110.066 E157.29120
G1 X91.362 Y112.994 E157.37533
G1 X95.990 Y112.994 E157.50389
G1 X97.693 Y111.292 E157.57077
G1 X96.910 Y108.372 E157.65474
G1 X99.850 Y105.433 E157.77020
G1 X102.770 Y106.215 E157.85417
G1 X105.709 Y103.276 E157.96964
G1 X104.926 Y100.356 E158.05361
G1 X107.865 Y97.417 E158.16907
G1 X110.785 Y98.199 E158.25304
G1 X112.994 Y95.990 E158.33981
G1 X112.994 Y92.534 E158.43583
G1 X112.942 Y92.340 E158.44140
G1 X112.994 Y92.288 E158.44344
G1 X112.994 Y91.362 E158.46915
G1 X112.479 Y91.877 E158.48937
G1 X108.314 Y87.712 F7800.000
G1 X109.020 Y87.006 E158.51710 F4800.000
G1 X108.095 Y87.006 E158.54281
G1 X107.851 Y87.249 E158.55237
G1 X106.944 Y87.006 E158.57846
G1 X104.392 Y87.006 E158.64934
G1 X101.992 Y89.406 E158.74362
G1 X102.775 Y92.326 E158.82760
G1 X99.835 Y95.265 E158.94306
G1 X96.915 Y94.483 E159.02703
G1 X93.976 Y97.422 E159.14249
G1 X94.759 Y100.342 E159.22646
G1 X91.820 Y103.281 E159.34192
G1 X88.900 Y102.498 E159.42590
G1 X87.006 Y104.392 E159.50029
G1 X87.006 Y109.020 E159.62884
G1 X87.206 Y108.820 E159.63669
G1 X90.126 Y109.603 E159.72066
G1 X93.065 Y106.664 E159.83612
G1 X92.282 Y103.744 E159.92009
G1 X95.222 Y100.805 E160.03556
G1 X98.142 Y101.587 E160.11953
G1 X101.081 Y98.648 E160.23499
G1 X100.298 Y95.728 E160.31896
G1 X103.237 Y92.789 E160.43442
G1 X106.157 Y93.571 E160.51840
G1 X109.097 Y90.632 E160.63386
G1 X108.314 Y87.712 E160.71783
G1 X101.529 Y88.943 F7800.000
G1 X103.467 Y87.006 E160.79393 F4800.000
G1 X97.961 Y87.006 E160.94685
G1 X98.147 Y87.698 E160.96675
G1 X95.207 Y90.637 E161.08221
