; generated by Slic3r 1.2.9 on 2020-09-05 at 22:43:06

; external perimeters extrusion width = 0.50mm
; perimeters extrusion width = 0.72mm
; infill extrusion width = 0.72mm
; solid infill extrusion width = 0.72mm
; top infill extrusion width = 0.72mm

M107
M104 S200 ; set temperature
G28 ; home all axes
G1 Z5 F5000 ; lift nozzle

M109 S200 ; wait for temperature to be reached
G21 ; set units to millimeters
G90 ; use absolute coordinates
M82 ; use absolute distances for extrusion
G92 E0
G1 Z0.500 F7800.000
G1 E-2.00000 F2400.00000
G92 E0
G1 X87.150 Y88.154 F7800.000
G1 E2.00000 F2400.00000
G1 X88.912 Y86.615 E2.14774 F1800.000
G1 X91.087 Y85.754 E2.29548
G1 X92.500 Y85.607 E2.38516
G1 X107.500 Y85.607 E3.33235
G1 X109.806 Y86.004 E3.48009
G1 X111.846 Y87.150 E3.62783 F1800.000
G1 X113.385 Y88.912 E3.77557
G1 X114.246 Y91.087 E3.92331
G1 X114.393 Y92.500 E4.01299
G1 X114.393 Y107.500 E4.96017
G1 X113.996 Y109.806 E5.10791
G1 X112.850 Y111.846 E5.25566
G1 X111.088 Y113.385 E5.40340
G1 X108.913 Y114.246 E5.55114
G1 X107.500 Y114.393 E5.64082
G1 X92.500 Y114.393 E6.58800
G1 X90.194 Y113.996 E6.73574
G1 X88.154 Y112.850 E6.88348
G1 X86.615 Y111.088 E7.03122
G1 X85.754 Y108.913 E7.17897
G1 X85.607 Y107.500 E7.26864
G1 X85.607 Y92.500 E8.21583
G1 X86.004 Y90.194 E8.36357
G1 X87.113 Y88.220 E8.50657
G1 E6.50657 F2400.00000
G92 E0
G1 X105.215 Y105.215 F7800.000
G1 E2.00000 F2400.00000
G1 X94.785 Y105.215 E2.65856 F1800.000
G1 X94.785 Y94.785 E3.31712
G1 X105.215 Y94.785 E3.97567
G1 X105.215 Y105.140 E4.62949
G1 X106.107 Y106.107 F7800.000
G1 X93.893 Y106.107 E5.40079 F1800.000
G1 X93.893 Y93.893 E6.17209
G1 X106.107 Y93.893 E6.94339
G1 X106.107 Y106.032 E7.70995
G1 X107.000 Y107.000 F7800.000
G1 X93.000 Y107.000 E8.59399 F1800.000
G1 X93.000 Y93.000 E9.47802
G1 X107.000 Y93.000 E10.36206
G1 X107.000 Y106.925 E11.24136
G1 X106.567 Y106.750 F7800.000
G1 X104.665 Y95.754 F7800.000
G1 X104.246 Y95.335 E11.27907 F1800.000
G1 X102.973 Y95.335 E11.36014
G1 X104.665 Y97.027 E11.51249
G1 X104.665 Y98.300 E11.59356
G1 X101.700 Y95.335 E11.86056
G1 X100.427 Y95.335 E11.94163
G1 X104.665 Y99.573 E12.32327
G1 X104.665 Y100.846 E12.40434
G1 X99.154 Y95.335 E12.90063
G1 X97.881 Y95.335 E12.98170
G1 X104.665 Y102.119 E13.59264
G1 X104.665 Y103.392 E13.67370
G1 X96.608 Y95.335 E14.39929
G1 X95.355 Y95.355 E14.47909
G1 X104.645 Y104.645 E15.31572
G1 X103.392 Y104.665 E15.39552
G1 X95.335 Y96.608 E16.12111
G1 X95.335 Y97.881 E16.20217
G1 X102.119 Y104.665 E16.81311
G1 X100.846 Y104.665 E16.89418
G1 X95.335 Y99.154 E17.39047
G1 X95.335 Y100.427 E17.47153
G1 X99.573 Y104.665 E17.85318
G1 X98.300 Y104.665 E17.93425
G1 X95.335 Y101.700 E18.20125
G1 X95.335 Y102.973 E18.28231
G1 X97.027 Y104.665 E18.43467
G1 X95.754 Y104.665 E18.51574
G1 X95.335 Y104.246 E18.55344
G1 Z0.800 F7800.000
G1 X106.050 Y106.050 F7800.000
G1 X93.950 Y106.050 E18.88958 F3600.000
G1 X93.950 Y93.950 E19.22572
G1 X106.050 Y93.950 E19.56185
G1 X106.050 Y105.975 E19.89590
G1 X106.705 Y106.705 F7800.000
G1 X93.295 Y106.705 E20.26840 F3600.000
G1 X93.295 Y93.295 E20.64090
G1 X106.705 Y93.295 E21.01339
G1 X106.705 Y106.630 E21.38381
G1 X107.250 Y107.250 F7800.000
G1 X92.750 Y107.250 E21.65189 F1800.000
G1 X92.750 Y92.750 E21.91997
G1 X107.250 Y92.750 E22.18805
G1 X107.250 Y107.175 E22.45474
G1 X106.817 Y107.000 F7800.000
G1 X105.335 Y105.653 F7800.000
G1 X105.653 Y105.335 E22.46762 F1200.000
G1 X105.653 Y104.380 E22.49502
G1 X104.380 Y105.653 E22.54665
G1 X103.424 Y105.653 E22.57405
G1 X105.653 Y103.424 E22.66443
G1 X105.653 Y102.469 E22.69183
G1 X102.469 Y105.653 E22.82096
G1 X101.513 Y105.653 E22.84836
G1 X105.653 Y101.513 E23.01624
G1 X105.653 Y100.558 E23.04363
G1 X100.558 Y105.653 E23.25026
G1 X99.602 Y105.653 E23.27766
G1 X105.653 Y99.602 E23.52303
G1 X105.653 Y98.647 E23.55043
G1 X98.647 Y105.653 E23.83455
G1 X97.691 Y105.653 E23.86195
G1 X105.653 Y97.691 E24.18482
G1 X105.653 Y96.736 E24.21222
G1 X96.736 Y105.653 E24.57384
G1 X95.780 Y105.653 E24.60124
G1 X105.653 Y95.780 E25.00160
G1 X105.653 Y94.825 E25.02900
G1 X94.825 Y105.653 E25.46812
G1 X94.347 Y105.175 E25.48749
G1 X105.175 Y94.347 E25.92661
G1 X104.220 Y94.347 E25.95400
G1 X94.347 Y104.220 E26.35437
G1 X94.347 Y103.264 E26.38177
G1 X103.264 Y94.347 E26.74339
G1 X102.309 Y94.347 E26.77079
G1 X94.347 Y102.309 E27.09366
G1 X94.347 Y101.353 E27.12105
G1 X101.353 Y94.347 E27.40518
G1 X100.398 Y94.347 E27.43257
G1 X94.347 Y100.398 E27.67795
G1 X94.347 Y99.442 E27.70535
G1 X99.442 Y94.347 E27.91197
G1 X98.487 Y94.347 E27.93937
G1 X94.347 Y98.487 E28.10724
G1 X94.347 Y97.531 E28.13464
G1 X97.531 Y94.347 E28.26377
G1 X96.576 Y94.347 E28.29117
G1 X94.347 Y96.576 E28.38155
G1 X94.347 Y95.620 E28.40895
G1 X95.620 Y94.347 E28.46058
G1 X94.665 Y94.347 E28.48798
G1 X94.347 Y94.665 E28.50086
G1 Z1.100 F7800.000
G1 X106.050 Y106.050 F7800.000
G1 X93.950 Y106.050 E28.83700 F3600.000
G1 X93.950 Y93.950 E29.17313
G1 X106.050 Y93.950 E29.50927
G1 X106.050 Y105.975 E29.84332
G1 X106.705 Y106.705 F7800.000
G1 X93.295 Y106.705 E30.21582 F3600.000
G1 X93.295 Y93.295 E30.58831
G1 X106.705 Y93.295 E30.96081
G1 X106.705 Y106.630 E31.33122
G1 X107.250 Y107.250 F7800.000
G1 X92.750 Y107.250 E31.59930 F1800.000
G1 X92.750 Y92.750 E31.86738
G1 X107.250 Y92.750 E32.13546
G1 X107.250 Y107.175 E32.40216
G1 X106.817 Y107.000 F7800.000
G1 X105.653 Y94.665 F7800.000
G1 X105.335 Y94.347 E32.41504 F1200.000
G1 X104.380 Y94.347 E32.44244
G1 X105.653 Y95.620 E32.49407
G1 X105.653 Y96.576 E32.52147
G1 X103.424 Y94.347 E32.61185
G1 X102.469 Y94.347 E32.63925
G1 X105.653 Y97.531 E32.76838
G1 X105.653 Y98.487 E32.79577
G1 X101.513 Y94.347 E32.96365
G1 X100.558 Y94.347 E32.99105
G1 X105.653 Y99.442 E33.19767
G1 X105.653 Y100.398 E33.22507
G1 X99.602 Y94.347 E33.47045
G1 X98.647 Y94.347 E33.49785
G1 X105.653 Y101.353 E33.78197
G1 X105.653 Y102.309 E33.80937
G1 X97.691 Y94.347 E34.13224
G1 X96.736 Y94.347 E34.15964
G1 X105.653 Y103.264 E34.52125
G1 X105.653 Y104.220 E34.54865
G1 X95.780 Y94.347 E34.94902
G1 X94.825 Y94.347 E34.97642
G1 X105.653 Y105.175 E35.41553
G1 X105.175 Y105.653 E35.43491
G1 X94.347 Y94.825 E35.87402
G1 X94.347 Y95.780 E35.90142
G1 X104.220 Y105.653 E36.30179
G1 X103.264 Y105.653 E36.32919
G1 X94.347 Y96.736 E36.69080
G1 X94.347 Y97.691 E36.71820
G1 X102.309 Y105.653 E37.04107
G1 X101.353 Y105.653 E37.06847
G1 X94.347 Y98.647 E37.35259
G1 X94.347 Y99.602 E37.37999
G1 X100.398 Y105.653 E37.62536
G1 X99.442 Y105.653 E37.65276
G1 X94.347 Y100.558 E37.85939
G1 X94.347 Y101.513 E37.88678
G1 X98.487 Y105.653 E38.05466
G1 X97.531 Y105.653 E38.08206
G1 X94.347 Y102.469 E38.21119
G1 X94.347 Y103.424 E38.23859
G1 X96.576 Y105.653 E38.32896
G1 X95.620 Y105.653 E38.35636
G1 X94.347 Y104.380 E38.40799
G1 X94.347 Y105.335 E38.43539
G1 X94.665 Y105.653 E38.44828
M106 S255
G1 Z1.400 F7800.000
G1 X106.050 Y106.050 F7800.000
G1 X93.950 Y106.050 E38.78441 F3207.712
G1 X93.950 Y93.950 E39.12055
G1 X106.050 Y93.950 E39.45668
G1 X106.050 Y105.975 E39.79074
G1 X106.705 Y106.705 F7800.000
G1 X93.295 Y106.705 E40.16323 F3207.712
G1 X93.295 Y93.295 E40.53573
G1 X106.705 Y93.295 E40.90823
G1 X106.705 Y106.630 E41.27864
G1 X107.250 Y107.250 F7800.000
G1 X92.750 Y107.250 E41.54672 F1603.856
G1 X92.750 Y92.750 E41.81480
G1 X107.250 Y92.750 E42.08288
G1 X107.250 Y107.175 E42.34957
G1 X106.817 Y107.000 F7800.000
G1 X105.494 Y102.272 F7800.000
G1 X104.415 Y101.983 E42.38059 F4276.949
G1 X101.476 Y104.922 E42.49605
G1 X101.630 Y105.494 E42.51251
G1 X105.494 Y105.494 E42.61986
G1 X105.494 Y102.272 E42.70937
G1 X105.494 Y96.276 F7800.000
G1 X105.494 Y95.350 E42.73509 F4276.949
G1 X102.707 Y98.137 E42.84456
G1 X99.787 Y97.355 E42.92853
G1 X96.848 Y100.294 E43.04399
G1 X97.631 Y103.214 E43.12796
G1 X95.350 Y105.494 E43.21754
G1 X96.276 Y105.494 E43.24326
G1 X98.094 Y103.677 E43.31466
G1 X101.014 Y104.459 E43.39863
G1 X103.953 Y101.520 E43.51409
G1 X103.170 Y98.600 E43.59806
G1 X105.494 Y96.276 E43.68935
G1 X105.494 Y94.629 F7800.000
G1 X105.494 Y94.506 E43.69276 F4276.949
G1 X105.461 Y94.506 E43.69367
G1 X105.494 Y94.629 E43.69720
G1 X99.325 Y96.892 F7800.000
G1 X98.685 Y94.506 E43.76582 F4276.949
G1 X94.506 Y94.506 E43.88191
G1 X94.506 Y99.327 E44.01584
G1 X96.386 Y99.831 E44.06990
G1 X99.325 Y96.892 E44.18536
G1 Z1.700 F7800.000
G1 X106.050 Y106.050 F7800.000
G1 X93.950 Y106.050 E44.52149 F3277.880
G1 X93.950 Y93.950 E44.85763
G1 X106.050 Y93.950 E45.19376
G1 X106.050 Y105.975 E45.52782
G1 X106.705 Y106.705 F7800.000
G1 X93.295 Y106.705 E45.90031 F3277.880
G1 X93.295 Y93.295 E46.27281
G1 X106.705 Y93.295 E46.64531
G1 X106.705 Y106.630 E47.01572
G1 X107.250 Y107.250 F7800.000
G1 X92.750 Y107.250 E47.28380 F1638.940
G1 X92.750 Y92.750 E47.55188
G1 X107.250 Y92.750 E47.81996
G1 X107.250 Y107.175 E48.08665
G1 X106.817 Y107.000 F7800.000
G1 X105.477 Y95.830 F7800.000
G1 X103.340 Y97.968 E48.17063 F4370.507
G1 X104.415 Y101.983 E48.28609
G1 X105.494 Y102.272 E48.31711
G1 X105.494 Y105.494 E48.40662
G1 X101.968 Y105.494 E48.50456
G1 X101.646 Y104.290 E48.53920
G1 X103.783 Y102.152 E48.62317
G1 X102.707 Y98.137 E48.73863
G1 X99.787 Y97.355 E48.82260
G1 X99.024 Y94.506 E48.90453
G1 X105.122 Y94.506 E49.07392
G1 X105.477 Y95.830 E49.11200
G1 X99.155 Y97.524 F7800.000
G1 X97.018 Y99.662 E49.19597 F4370.507
G1 X98.094 Y103.677 E49.31144
G1 X101.014 Y104.459 E49.39541
G1 X101.291 Y105.494 E49.42518
G1 X95.813 Y105.494 E49.57734
G1 X97.461 Y103.846 E49.64208
G1 X96.386 Y99.831 E49.75755
G1 X94.506 Y99.327 E49.81160
G1 X94.506 Y94.506 E49.94553
G1 X98.347 Y94.506 E50.05222
G1 X99.155 Y97.524 E50.13901
G1 Z2.000 F7800.000
G1 X106.050 Y106.050 F7800.000
G1 X93.950 Y106.050 E50.47514 F3283.161
G1 X93.950 Y93.950 E50.81128
G1 X106.050 Y93.950 E51.14742
G1 X106.050 Y105.975 E51.48147
G1 X106.705 Y106.705 F7800.000
G1 X93.295 Y106.705 E51.85397 F3283.161
G1 X93.295 Y93.295 E52.22646
G1 X106.705 Y93.295 E52.59896
G1 X106.705 Y106.630 E52.96937
G1 X107.250 Y107.250 F7800.000
G1 X92.750 Y107.250 E53.23745 F1641.581
G1 X92.750 Y92.750 E53.50553
G1 X107.250 Y92.750 E53.77361
G1 X107.250 Y107.175 E54.04030
G1 X106.817 Y107.000 F7800.000
G1 X96.848 Y100.294 F7800.000
G1 X94.506 Y99.666 E54.10767 F4377.548
G1 X94.506 Y105.494 E54.26956
G1 X95.813 Y105.494 E54.30587
G1 X97.461 Y103.846 E54.37062
G1 X101.476 Y104.922 E54.48608
G1 X101.630 Y105.494 E54.50254
G1 X105.494 Y105.494 E54.60989
G1 X105.494 Y102.610 E54.68999
G1 X103.783 Y102.152 E54.73919
G1 X101.646 Y104.290 E54.82316
G1 X97.631 Y103.214 E54.93862
G1 X96.848 Y100.294 E55.02260
G1 X99.325 Y96.892 F7800.000
G1 X98.685 Y94.506 E55.09121 F4377.548
G1 X94.506 Y94.506 E55.20731
G1 X94.506 Y98.988 E55.33182
G1 X97.018 Y99.662 E55.40406
G1 X99.155 Y97.524 E55.48803
G1 X103.170 Y98.600 E55.60349
G1 X103.953 Y101.520 E55.68746
G1 X105.494 Y101.933 E55.73179
G1 X105.494 Y95.835 E55.90119
G1 X105.477 Y95.830 E55.90167
G1 X103.340 Y97.968 E55.98565
G1 X99.325 Y96.892 E56.10111
G1 X105.494 Y94.629 F7800.000
G1 X105.494 Y94.506 E56.10452 F4377.548
G1 X105.461 Y94.506 E56.10543
G1 X105.494 Y94.629 E56.10896
G1 Z2.300 F7800.000
G1 X106.050 Y106.050 F7800.000
G1 X93.950 Y106.050 E56.44510 F3207.712
G1 X93.950 Y93.950 E56.78123
G1 X106.050 Y93.950 E57.11737
G1 X106.050 Y105.975 E57.45142
G1 X106.705 Y106.705 F7800.000
G1 X93.295 Y106.705 E57.82392 F3207.712
G1 X93.295 Y93.295 E58.19641
G1 X106.705 Y93.295 E58.56891
G1 X106.705 Y106.630 E58.93932
G1 X107.250 Y107.250 F7800.000
G1 X92.750 Y107.250 E59.20740 F1603.856
G1 X92.750 Y92.750 E59.47548
G1 X107.250 Y92.750 E59.74356
G1 X107.250 Y107.175 E60.01026
G1 X106.817 Y107.000 F7800.000
G1 X105.494 Y102.272 F7800.000
G1 X104.415 Y101.983 E60.04127 F4276.949
G1 X101.476 Y104.922 E60.15674
G1 X101.630 Y105.494 E60.17320
G1 X105.494 Y105.494 E60.28054
G1 X105.494 Y102.272 E60.37006
G1 X105.494 Y96.276 F7800.000
G1 X105.494 Y95.350 E60.39577 F4276.949
G1 X102.707 Y98.137 E60.50524
G1 X99.787 Y97.355 E60.58921
G1 X96.848 Y100.294 E60.70467
G1 X97.631 Y103.214 E60.78865
G1 X95.350 Y105.494 E60.87823
G1 X96.276 Y105.494 E60.90394
G1 X98.094 Y103.677 E60.97534
G1 X101.014 Y104.459 E61.05931
G1 X103.953 Y101.520 E61.17477
G1 X103.170 Y98.600 E61.25875
G1 X105.494 Y96.276 E61.35004
G1 X105.494 Y94.629 F7800.000
G1 X105.494 Y94.506 E61.35345 F4276.949
G1 X105.461 Y94.506 E61.35436
G1 X105.494 Y94.629 E61.35789
G1 X99.325 Y96.892 F7800.000
G1 X98.685 Y94.506 E61.42650 F4276.949
G1 X94.506 Y94.506 E61.54260
G1 X94.506 Y99.327 E61.67653
G1 X96.386 Y99.831 E61.73058
G1 X99.325 Y96.892 E61.84604
G1 Z2.600 F7800.000
G1 X106.050 Y106.050 F7800.000
G1 X93.950 Y106.050 E62.18218 F3277.880
G1 X93.950 Y93.950 E62.51831
G1 X106.050 Y93.950 E62.85445
G1 X106.050 Y105.975 E63.18850
G1 X106.705 Y106.705 F7800.000
G1 X93.295 Y106.705 E63.56100 F3277.880
G1 X93.295 Y93.295 E63.93349
G1 X106.705 Y93.295 E64.30599
G1 X106.705 Y106.630 E64.67640
G1 X107.250 Y107.250 F7800.000
G1 X92.750 Y107.250 E64.94448 F1638.940
G1 X92.750 Y92.750 E65.21256
G1 X107.250 Y92.750 E65.48064
G1 X107.250 Y107.175 E65.74734
G1 X106.817 Y107.000 F7800.000
G1 X105.477 Y95.830 F7800.000
G1 X103.340 Y97.968 E65.83131 F4370.507
G1 X104.415 Y101.983 E65.94677
G1 X105.494 Y102.272 E65.97779
G1 X105.494 Y105.494 E66.06731
G1 X101.968 Y105.494 E66.16524
G1 X101.646 Y104.290 E66.19988
G1 X103.783 Y102.152 E66.28385
G1 X102.707 Y98.137 E66.39932
G1 X99.787 Y97.355 E66.48329
G1 X99.024 Y94.506 E66.56521
G1 X105.122 Y94.506 E66.73461
G1 X105.477 Y95.830 E66.77268
G1 X99.155 Y97.524 F7800.000
G1 X97.018 Y99.662 E66.85666 F4370.507
G1 X98.094 Y103.677 E66.97212
G1 X101.014 Y104.459 E67.05609
G1 X101.291 Y105.494 E67.08586
G1 X95.813 Y105.494 E67.23802
G1 X97.461 Y103.846 E67.30277
G1 X96.386 Y99.831 E67.41823
G1 X94.506 Y99.327 E67.47228
G1 X94.506 Y94.506 E67.60621
G1 X98.347 Y94.506 E67.71290
G1 X99.155 Y97.524 E67.79969
G1 Z2.900 F7800.000
G1 X106.050 Y106.050 F7800.000
G1 X93.950 Y106.050 E68.13583 F3283.161
G1 X93.950 Y93.950 E68.47196
G1 X106.050 Y93.950 E68.80810
G1 X106.050 Y105.975 E69.14215
G1 X106.705 Y106.705 F7800.000
G1 X93.295 Y106.705 E69.51465 F3283.161
G1 X93.295 Y93.295 E69.88715
G1 X106.705 Y93.295 E70.25964
G1 X106.705 Y106.630 E70.63006
G1 X107.250 Y107.250 F7800.000
G1 X92.750 Y107.250 E70.89814 F1641.581
G1 X92.750 Y92.750 E71.16622
G1 X107.250 Y92.750 E71.43430
G1 X107.250 Y107.175 E71.70099
G1 X106.817 Y107.000 F7800.000
G1 X96.848 Y100.294 F7800.000
G1 X94.506 Y99.666 E71.76835 F4377.548
G1 X94.506 Y105.494 E71.93024
G1 X95.813 Y105.494 E71.96655
G1 X97.461 Y103.846 E72.03130
G1 X101.476 Y104.922 E72.14676
G1 X101.630 Y105.494 E72.16322
G1 X105.494 Y105.494 E72.27057
G1 X105.494 Y102.610 E72.35067
G1 X103.783 Y102.152 E72.39987
G1 X101.646 Y104.290 E72.48385
G1 X97.631 Y103.214 E72.59931
G1 X96.848 Y100.294 E72.68328
G1 X99.325 Y96.892 F7800.000
G1 X98.685 Y94.506 E72.75189 F4377.548
G1 X94.506 Y94.506 E72.86799
G1 X94.506 Y98.988 E72.99251
G1 X97.018 Y99.662 E73.06474
G1 X99.155 Y97.524 E73.14871
G1 X103.170 Y98.600 E73.26418
G1 X103.953 Y101.520 E73.34815
G1 X105.494 Y101.933 E73.39248
G1 X105.494 Y95.835 E73.56187
G1 X105.477 Y95.830 E73.56236
G1 X103.340 Y97.968 E73.64633
G1 X99.325 Y96.892 E73.76179
G1 X105.494 Y94.629 F7800.000
G1 X105.494 Y94.506 E73.76520 F4377.548
G1 X105.461 Y94.506 E73.76611
G1 X105.494 Y94.629 E73.76964
M106 S252.45
G1 Z3.200 F7800.000
G1 X104.591 Y101.828 F7800.000
G1 X106.050 Y101.829 E73.81020 F3600.000
G1 X106.050 Y106.050 E73.92746
G1 X93.950 Y106.050 E74.26359
G1 X93.950 Y93.950 E74.59973
G1 X94.992 Y93.950 E74.62868
G1 X94.993 Y95.368 E74.66809
G1 X99.112 Y95.368 E74.78252
