; generated by Slic3r 1.2.9 on 2020-09-05 at 22:20:31

; external perimeters extrusion width = 0.50mm
; perimeters extrusion width = 0.72mm
; infill extrusion width = 0.72mm
; solid infill extrusion width = 0.72mm
; top infill extrusion width = 0.72mm

M107
M104 S200 ; set temperature
G28 ; home all axes
G1 Z5 F5000 ; lift nozzle

M109 S200 ; wait for temperature to be reached
G21 ; set units to millimeters
G90 ; use absolute coordinates
M82 ; use absolute distances for extrusion
G92 E0
G1 Z0.500 F7800.000
G1 E-2.00000 F2400.00000
G92 E0
G1 X89.650 Y90.654 F7800.000
G1 E2.00000 F2400.00000
G1 X91.412 Y89.115 E2.14774 F1800.000
G1 X93.587 Y88.254 E2.29548
G1 X95.000 Y88.107 E2.38516
G1 X105.000 Y88.107 E3.01662
G1 X107.306 Y88.504 E3.16436
G1 X109.346 Y89.650 E3.31210 F1800.000
G1 X110.885 Y91.412 E3.45984
G1 X111.746 Y93.587 E3.60758
G1 X111.893 Y95.000 E3.69726
G1 X111.893 Y105.000 E4.32872
G1 X111.496 Y107.306 E4.47646
G1 X110.350 Y109.346 E4.62420
G1 X108.588 Y110.885 E4.77194
G1 X106.413 Y111.746 E4.91968
G1 X105.000 Y111.893 E5.00936
G1 X95.000 Y111.893 E5.64082
G1 X92.694 Y111.496 E5.78856
G1 X90.654 Y110.350 E5.93630
G1 X89.115 Y108.588 E6.08404
G1 X88.254 Y106.413 E6.23178
G1 X88.107 Y105.000 E6.32146
G1 X88.107 Y95.000 E6.95292
G1 X88.504 Y92.694 E7.10066
G1 X89.613 Y90.720 E7.24366
G1 E5.24366 F2400.00000
G92 E0
G1 X102.715 Y102.715 F7800.000
G1 E2.00000 F2400.00000
G1 X97.285 Y102.715 E2.34283 F1800.000
G1 X97.285 Y97.285 E2.68566
G1 X102.715 Y97.285 E3.02849
G1 X102.715 Y102.640 E3.36658
G1 X103.607 Y103.607 F7800.000
G1 X96.393 Y103.607 E3.82215 F1800.000
G1 X96.393 Y96.393 E4.27772
G1 X103.607 Y96.393 E4.73329
G1 X103.607 Y103.532 E5.18413
G1 X104.500 Y104.500 F7800.000
G1 X95.500 Y104.500 E5.75244 F1800.000
G1 X95.500 Y95.500 E6.32075
G1 X104.500 Y95.500 E6.88906
G1 X104.500 Y104.425 E7.45263
G1 X104.067 Y104.250 F7800.000
G1 X102.165 Y98.254 F7800.000
G1 X101.746 Y97.835 E7.49125 F1800.000
G1 X100.443 Y97.835 E7.57629
G1 X102.165 Y99.557 E7.73517
G1 X102.165 Y100.861 E7.82020
G1 X99.139 Y97.835 E8.09934
G1 X97.855 Y97.855 E8.18308
G1 X102.145 Y102.145 E8.57879
G1 X100.861 Y102.165 E8.66253
G1 X97.835 Y99.139 E8.94167
G1 X97.835 Y100.443 E9.02670
G1 X99.557 Y102.165 E9.18558
G1 X98.254 Y102.165 E9.27062
G1 X97.835 Y101.746 E9.30924
G1 Z0.800 F7800.000
G1 X103.550 Y103.550 F7800.000
G1 X96.450 Y103.550 E9.50648 F900.000
G1 X96.450 Y96.450 E9.70373
G1 X103.550 Y96.450 E9.90098
G1 X103.550 Y103.475 E10.09614
G1 X104.205 Y104.205 F7800.000
G1 X95.795 Y104.205 E10.32975 F900.000
G1 X95.795 Y95.795 E10.56336
G1 X104.205 Y95.795 E10.79697
G1 X104.205 Y104.130 E11.02849
G1 X104.750 Y104.750 F7800.000
G1 X95.250 Y104.750 E11.20413 F900.000
G1 X95.250 Y95.250 E11.37977
G1 X104.750 Y95.250 E11.55541
G1 X104.750 Y104.675 E11.72966
G1 X104.317 Y104.500 F7800.000
G1 X102.835 Y103.153 F7800.000
G1 X103.153 Y102.835 E11.74311 F1200.000
G1 X103.153 Y101.837 E11.77301
G1 X101.837 Y103.153 E11.82874
G1 X100.839 Y103.153 E11.85863
G1 X103.153 Y100.839 E11.95664
G1 X103.153 Y99.841 E11.98653
G1 X99.841 Y103.153 E12.12682
G1 X98.843 Y103.153 E12.15671
G1 X103.153 Y98.843 E12.33927
G1 X103.153 Y97.845 E12.36916
G1 X97.845 Y103.153 E12.59400
G1 X96.867 Y103.133 E12.62330
G1 X103.133 Y96.867 E12.88872
G1 X102.155 Y96.847 E12.91802
G1 X96.847 Y102.155 E13.14285
G1 X96.847 Y101.157 E13.17274
G1 X101.157 Y96.847 E13.35530
G1 X100.159 Y96.847 E13.38520
G1 X96.847 Y100.159 E13.52548
G1 X96.847 Y99.161 E13.55537
G1 X99.161 Y96.847 E13.65338
G1 X98.163 Y96.847 E13.68328
G1 X96.847 Y98.163 E13.73901
G1 X96.847 Y97.165 E13.76890
G1 X97.165 Y96.847 E13.78236
G1 Z1.100 F7800.000
G1 X103.550 Y103.550 F7800.000
G1 X96.450 Y103.550 E13.97960 F900.000
G1 X96.450 Y96.450 E14.17685
G1 X103.550 Y96.450 E14.37410
G1 X103.550 Y103.475 E14.56926
G1 X104.205 Y104.205 F7800.000
G1 X95.795 Y104.205 E14.80287 F900.000
G1 X95.795 Y95.795 E15.03648
G1 X104.205 Y95.795 E15.27008
G1 X104.205 Y104.130 E15.50161
G1 X104.750 Y104.750 F7800.000
G1 X95.250 Y104.750 E15.67725 F900.000
G1 X95.250 Y95.250 E15.85289
G1 X104.750 Y95.250 E16.02852
G1 X104.750 Y104.675 E16.20278
G1 X104.317 Y104.500 F7800.000
G1 X103.153 Y97.165 F7800.000
G1 X102.835 Y96.847 E16.21623 F1200.000
G1 X101.837 Y96.847 E16.24613
G1 X103.153 Y98.163 E16.30186
G1 X103.153 Y99.161 E16.33175
G1 X100.839 Y96.847 E16.42976
G1 X99.841 Y96.847 E16.45965
G1 X103.153 Y100.159 E16.59994
G1 X103.153 Y101.157 E16.62983
G1 X98.843 Y96.847 E16.81239
G1 X97.845 Y96.847 E16.84228
G1 X103.153 Y102.155 E17.06712
G1 X103.133 Y103.133 E17.09642
G1 X96.867 Y96.867 E17.36184
G1 X96.847 Y97.845 E17.39114
G1 X102.155 Y103.153 E17.61597
G1 X101.157 Y103.153 E17.64586
G1 X96.847 Y98.843 E17.82842
G1 X96.847 Y99.841 E17.85832
G1 X100.159 Y103.153 E17.99860
G1 X99.161 Y103.153 E18.02849
G1 X96.847 Y100.839 E18.12650
G1 X96.847 Y101.837 E18.15639
G1 X98.163 Y103.153 E18.21213
G1 X97.165 Y103.153 E18.24202
G1 X96.847 Y102.835 E18.25548
M106 S237.15
G1 Z1.400 F7800.000
G1 X103.550 Y103.550 F7800.000
G1 X96.450 Y103.550 E18.45272 F900.000
G1 X96.450 Y96.450 E18.64997
G1 X103.550 Y96.450 E18.84722
G1 X103.550 Y103.475 E19.04238
G1 X104.205 Y104.205 F7800.000
G1 X95.795 Y104.205 E19.27599 F900.000
G1 X95.795 Y95.795 E19.50960
G1 X104.205 Y95.795 E19.74320
G1 X104.205 Y104.130 E19.97473
G1 X104.750 Y104.750 F7800.000
G1 X95.250 Y104.750 E20.15037 F900.000
G1 X95.250 Y95.250 E20.32600
G1 X104.750 Y95.250 E20.50164
G1 X104.750 Y104.675 E20.67590
G1 X104.317 Y104.500 F7800.000
G1 X102.835 Y103.153 F7800.000
G1 X103.153 Y102.835 E20.68935 F1200.000
G1 X103.153 Y101.837 E20.71924
G1 X101.837 Y103.153 E20.77498
G1 X100.839 Y103.153 E20.80487
G1 X103.153 Y100.839 E20.90288
G1 X103.153 Y99.841 E20.93277
G1 X99.841 Y103.153 E21.07305
G1 X98.843 Y103.153 E21.10295
G1 X103.153 Y98.843 E21.28550
G1 X103.153 Y97.845 E21.31540
G1 X97.845 Y103.153 E21.54023
G1 X96.867 Y103.133 E21.56953
G1 X103.133 Y96.867 E21.83495
G1 X102.155 Y96.847 E21.86425
G1 X96.847 Y102.155 E22.08908
G1 X96.847 Y101.157 E22.11897
G1 X101.157 Y96.847 E22.30153
G1 X100.159 Y96.847 E22.33142
G1 X96.847 Y100.159 E22.47171
G1 X96.847 Y99.161 E22.50160
G1 X99.161 Y96.847 E22.59961
G1 X98.163 Y96.847 E22.62950
G1 X96.847 Y98.163 E22.68523
G1 X96.847 Y97.165 E22.71513
G1 X97.165 Y96.847 E22.72858
G1 Z1.700 F7800.000
G1 X103.550 Y103.550 F7800.000
G1 X96.450 Y103.550 E22.92583 F900.000
G1 X96.450 Y96.450 E23.12307
G1 X103.550 Y96.450 E23.32032
G1 X103.550 Y103.475 E23.51549
G1 X104.205 Y104.205 F7800.000
G1 X95.795 Y104.205 E23.74909 F900.000
G1 X95.795 Y95.795 E23.98270
G1 X104.205 Y95.795 E24.21631
G1 X104.205 Y104.130 E24.44783
G1 X104.750 Y104.750 F7800.000
G1 X95.250 Y104.750 E24.62347 F900.000
G1 X95.250 Y95.250 E24.79911
G1 X104.750 Y95.250 E24.97475
G1 X104.750 Y104.675 E25.14900
G1 X104.317 Y104.500 F7800.000
G1 X103.153 Y97.165 F7800.000
G1 X102.835 Y96.847 E25.16246 F1200.000
G1 X101.837 Y96.847 E25.19235
G1 X103.153 Y98.163 E25.24808
G1 X103.153 Y99.161 E25.27798
G1 X100.839 Y96.847 E25.37598
G1 X99.841 Y96.847 E25.40588
G1 X103.153 Y100.159 E25.54616
G1 X103.153 Y101.157 E25.57605
G1 X98.843 Y96.847 E25.75861
G1 X97.845 Y96.847 E25.78850
G1 X103.153 Y102.155 E26.01334
G1 X103.133 Y103.133 E26.04264
G1 X96.867 Y96.867 E26.30805
G1 X96.847 Y97.845 E26.33735
G1 X102.155 Y103.153 E26.56219
G1 X101.157 Y103.153 E26.59208
G1 X96.847 Y98.843 E26.77464
G1 X96.847 Y99.841 E26.80453
G1 X100.159 Y103.153 E26.94481
G1 X99.161 Y103.153 E26.97471
G1 X96.847 Y100.839 E27.07271
G1 X96.847 Y101.837 E27.10261
G1 X98.163 Y103.153 E27.15834
G1 X97.165 Y103.153 E27.18823
G1 X96.847 Y102.835 E27.20169
M106 S242.25
G1 Z2.000 F7800.000
G1 X103.550 Y103.550 F7800.000
G1 X96.450 Y103.550 E27.39893 F900.000
G1 X96.450 Y97.395 E27.56991
G1 X103.550 Y97.395 E27.76716
G1 X103.550 Y103.475 E27.93605
G1 X102.946 Y96.741 F7800.000
G1 X102.947 Y95.795 E27.96232 F900.000
G1 X104.205 Y95.795 E27.99727
G1 X104.205 Y104.205 E28.23087
G1 X95.795 Y104.205 E28.46448
G1 X95.795 Y95.796 E28.69806
G1 X96.731 Y95.797 E28.72406
G1 X96.731 Y96.741 E28.75027
G1 X99.128 Y96.741 E28.81685
G1 X99.128 Y95.795 E28.84312
G1 X100.466 Y95.795 E28.88031
G1 X100.466 Y96.741 E28.90658
G1 X102.871 Y96.741 E28.97340
G1 X102.402 Y96.196 F7800.000
G1 X102.402 Y95.250 E28.99088 F1800.000
G1 X104.750 Y95.250 E29.03429
G1 X104.750 Y104.750 E29.20993
G1 X95.250 Y104.750 E29.38557
G1 X95.250 Y95.250 E29.56120
G1 X97.276 Y95.253 E29.59865
G1 X97.276 Y96.196 E29.61609
G1 X98.583 Y96.196 E29.64024
G1 X98.582 Y95.250 E29.65773
G1 X101.012 Y95.250 E29.70264
G1 X101.011 Y96.196 E29.72013
G1 X102.327 Y96.196 E29.74445
G1 X102.902 Y96.196 F7800.000
G1 X103.576 Y96.122 F7800.000
G1 X103.576 Y97.068 E29.77072 F1200.000
G1 X99.797 Y97.068 F7800.000
G1 X99.797 Y96.122 E29.79699 F1200.000
G1 X96.847 Y98.110 F7800.000
G1 X97.165 Y97.793 E29.81051 F1200.000
G1 X98.168 Y97.793 E29.84069
G1 X96.847 Y99.113 E29.89689
G1 X96.847 Y100.116 E29.92706
G1 X99.170 Y97.793 E30.02594
G1 X100.173 Y97.793 E30.05612
G1 X96.847 Y101.119 E30.19768
G1 X96.847 Y102.122 E30.22786
G1 X101.176 Y97.793 E30.41210
G1 X102.179 Y97.793 E30.44228
G1 X96.853 Y103.119 E30.66896
G1 X97.821 Y103.153 E30.69812
G1 X103.147 Y97.827 E30.92480
G1 X103.153 Y98.824 E30.95480
G1 X98.824 Y103.153 E31.13904
G1 X99.827 Y103.153 E31.16922
G1 X103.153 Y99.827 E31.31078
G1 X103.153 Y100.830 E31.34096
G1 X100.830 Y103.153 E31.43984
G1 X101.832 Y103.153 E31.47002
G1 X103.153 Y101.832 E31.52622
G1 X103.153 Y102.835 E31.55640
G1 X102.835 Y103.153 E31.56992
G1 Z2.300 F7800.000
G1 X102.579 Y97.961 F7800.000
G1 X102.577 Y101.701 E31.67380 F900.000
G1 X103.550 Y101.701 E31.70083
G1 X103.550 Y103.550 E31.75220
G1 X96.450 Y103.550 E31.94945
G1 X96.450 Y97.395 E32.12042
G1 X103.550 Y97.395 E32.31767
G1 X103.550 Y97.962 E32.33339
G1 X102.654 Y97.961 E32.35830
G1 X103.233 Y98.616 F7800.000
G1 X103.232 Y101.046 E32.42581 F900.000
G1 X104.205 Y101.047 E32.45284
G1 X104.205 Y104.205 E32.54056
G1 X95.795 Y104.205 E32.77417
G1 X95.795 Y95.795 E33.00778
G1 X96.897 Y95.795 E33.03840
G1 X96.898 Y96.741 E33.06468
G1 X99.306 Y96.741 E33.13156
G1 X99.305 Y95.795 E33.15784
G1 X100.284 Y95.795 E33.18501
G1 X100.283 Y96.741 E33.21129
G1 X102.757 Y96.741 E33.28000
G1 X102.757 Y95.795 E33.30628
G1 X104.205 Y95.795 E33.34649
G1 X104.205 Y98.616 E33.42486
G1 X103.308 Y98.616 E33.44978
G1 X103.778 Y99.161 F7800.000
G1 X103.777 Y100.502 E33.47456 F1800.000
G1 X104.750 Y100.502 E33.49254
G1 X104.750 Y104.750 E33.57108
G1 X95.250 Y104.750 E33.74672
G1 X95.250 Y95.250 E33.92236
G1 X97.442 Y95.250 E33.96289
G1 X97.443 Y96.196 E33.98037
G1 X98.760 Y96.196 E34.00474
G1 X98.760 Y95.250 E34.02223
G1 X100.829 Y95.250 E34.06048
G1 X100.828 Y96.196 E34.07797
G1 X102.212 Y96.196 E34.10355
G1 X102.213 Y95.250 E34.12104
G1 X104.750 Y95.250 E34.16795
G1 X104.750 Y99.162 E34.24027
G1 X103.853 Y99.161 E34.25686
G1 X103.278 Y99.161 F7800.000
G1 X102.181 Y98.111 F7800.000
G1 X101.864 Y97.793 E34.27042 F1200.000
G1 X100.858 Y97.793 E34.30078
G1 X102.181 Y99.116 E34.35727
G1 X102.180 Y100.122 E34.38762
G1 X99.852 Y97.793 E34.48703
G1 X98.846 Y97.793 E34.51740
G1 X102.180 Y101.127 E34.65973
G1 X102.145 Y102.098 E34.68906
G1 X103.153 Y103.106 E34.73209
G1 X102.194 Y103.153 E34.76107
G1 X96.861 Y97.819 E34.98877
G1 X97.840 Y97.793 E35.01835
G1 X102.180 Y102.132 E35.20361
G1 X101.188 Y103.153 F7800.000
G1 X96.847 Y98.812 E35.38894 F1200.000
G1 X96.847 Y99.818 E35.41931
G1 X100.182 Y103.153 E35.56170
G1 X99.176 Y103.153 E35.59206
G1 X96.847 Y100.824 E35.69151
G1 X96.847 Y101.829 E35.72188
G1 X98.171 Y103.153 E35.77838
G1 X97.165 Y103.153 E35.80875
G1 X96.847 Y102.835 E35.82231
G1 Z2.600 F7800.000
G1 X102.579 Y97.958 F7800.000
G1 X102.578 Y101.697 E35.92619 F900.000
G1 X103.550 Y101.698 E35.95321
G1 X103.550 Y103.550 E36.00467
G1 X96.450 Y103.550 E36.20192
G1 X96.450 Y97.396 E36.37288
G1 X103.550 Y97.396 E36.57013
G1 X103.550 Y97.958 E36.58576
G1 X102.654 Y97.958 E36.61065
G1 X103.233 Y98.613 F7800.000
G1 X103.232 Y101.043 E36.67816 F900.000
G1 X104.205 Y101.044 E36.70518
G1 X104.205 Y104.205 E36.79299
G1 X95.795 Y104.205 E37.02660
G1 X95.795 Y95.795 E37.26021
G1 X97.064 Y95.795 E37.29545
G1 X97.064 Y96.741 E37.32174
G1 X99.483 Y96.741 E37.38893
G1 X99.483 Y95.795 E37.41522
G1 X100.101 Y95.795 E37.43238
G1 X100.100 Y96.741 E37.45866
G1 X102.567 Y96.741 E37.52718
G1 X102.568 Y95.795 E37.55347
G1 X104.205 Y95.795 E37.59895
G1 X104.205 Y98.613 E37.67723
G1 X103.308 Y98.613 E37.70213
G1 X103.778 Y99.158 F7800.000
G1 X103.778 Y100.498 E37.72691 F1800.000
G1 X104.750 Y100.499 E37.74489
G1 X104.750 Y104.750 E37.82348
G1 X95.250 Y104.750 E37.99912
G1 X95.250 Y95.250 E38.17476
G1 X97.609 Y95.250 E38.21837
G1 X97.609 Y96.196 E38.23586
G1 X98.938 Y96.196 E38.26043
G1 X98.938 Y95.250 E38.27793
G1 X100.646 Y95.250 E38.30951
G1 X100.646 Y96.196 E38.32701
G1 X102.022 Y96.196 E38.35246
G1 X102.023 Y95.250 E38.36995
G1 X104.750 Y95.250 E38.42037
G1 X104.750 Y99.158 E38.49263
G1 X103.853 Y99.158 E38.50921
G1 X103.278 Y99.158 F7800.000
G1 X102.835 Y103.153 F7800.000
G1 X103.153 Y102.835 E38.52273 F1200.000
G1 X102.891 Y102.095 E38.54637
G1 X101.833 Y103.153 E38.59139
G1 X100.830 Y103.153 E38.62157
G1 X102.180 Y101.803 E38.67904
G1 X102.180 Y100.800 E38.70923
G1 X99.827 Y103.153 E38.80939
G1 X98.824 Y103.153 E38.83956
G1 X102.181 Y99.796 E38.98242
G1 X102.181 Y98.793 E39.01261
G1 X97.821 Y103.153 E39.19815
G1 X96.853 Y103.119 E39.22732
G1 X102.160 Y97.812 E39.45319
G1 X101.176 Y97.793 E39.48282
G1 X96.847 Y102.122 E39.66704
G1 X96.847 Y101.119 E39.69722
G1 X100.173 Y97.793 E39.83877
G1 X99.170 Y97.793 E39.86894
G1 X96.847 Y100.116 E39.96781
G1 X96.847 Y99.114 E39.99799
G1 X98.167 Y97.793 E40.05419
G1 X97.165 Y97.793 E40.08436
G1 X96.847 Y98.111 E40.09788
G1 X96.430 Y97.068 F7800.000
G1 X96.430 Y96.122 E40.12416 F1200.000
G1 Z2.900 F7800.000
G1 X102.580 Y97.955 F7800.000
G1 X102.578 Y101.694 E40.22804 F900.000
G1 X103.550 Y101.695 E40.25505
G1 X103.550 Y103.550 E40.30660
G1 X96.450 Y103.550 E40.50385
G1 X96.450 Y97.396 E40.67480
G1 X103.032 Y97.396 E40.85764
G1 X103.032 Y96.450 E40.88393
G1 X103.550 Y96.450 E40.89833
G1 X103.550 Y97.955 E40.94015
G1 X102.655 Y97.955 E40.96503
G1 X103.234 Y98.609 F7800.000
G1 X103.233 Y101.040 E41.03254 F900.000
G1 X104.205 Y101.040 E41.05954
G1 X104.205 Y104.205 E41.14745
G1 X95.795 Y104.205 E41.38106
G1 X95.795 Y95.795 E41.61467
G1 X97.230 Y95.795 E41.65454
G1 X97.231 Y96.741 E41.68083
G1 X102.377 Y96.741 E41.82379
G1 X102.378 Y95.795 E41.85008
G1 X104.205 Y95.795 E41.90083
G1 X104.205 Y98.610 E41.97902
G1 X103.309 Y98.609 E42.00390
G1 X103.779 Y99.155 F7800.000
G1 X103.778 Y100.495 E42.02869 F1800.000
G1 X104.750 Y100.496 E42.04665
G1 X104.750 Y104.750 E42.12531
G1 X95.250 Y104.750 E42.30095
G1 X95.250 Y95.250 E42.47659
G1 X97.775 Y95.250 E42.52327
G1 X97.776 Y96.196 E42.54077
G1 X99.116 Y96.196 E42.56555
G1 X99.115 Y95.250 E42.58305
G1 X100.463 Y95.250 E42.60797
G1 X100.463 Y96.196 E42.62547
G1 X101.833 Y96.196 E42.65079
G1 X101.833 Y95.250 E42.66829
G1 X104.750 Y95.250 E42.72222
G1 X104.750 Y99.155 E42.79442
G1 X103.854 Y99.155 E42.81099
G1 X103.279 Y99.155 F7800.000
G1 X102.182 Y98.111 F7800.000
G1 X101.865 Y97.793 E42.82455 F1200.000
G1 X100.859 Y97.793 E42.85492
G1 X102.182 Y99.117 E42.91141
G1 X102.181 Y100.122 E42.94176
G1 X99.853 Y97.793 E43.04118
G1 X98.847 Y97.793 E43.07155
G1 X102.181 Y101.128 E43.21390
G1 X102.139 Y102.092 E43.24302
G1 X103.153 Y103.106 E43.28632
G1 X102.194 Y103.153 E43.31529
G1 X96.861 Y97.820 E43.54299
G1 X97.841 Y97.793 E43.57258
G1 X102.180 Y102.133 E43.75786
