; generated by Slic3r 1.2.9 on 2020-09-05 at 20:28:03

; external perimeters extrusion width = 0.40mm
; perimeters extrusion width = 0.48mm
; infill extrusion width = 0.48mm
; solid infill extrusion width = 0.48mm
; top infill extrusion width = 0.48mm

M107
M190 S65 ; set bed temperature
M104 S205 ; set temperature
G28 ; home all axes
G1 Z5 F5000 ; lift nozzle

M109 S205 ; wait for temperature to be reached
G21 ; set units to millimeters
G90 ; use absolute coordinates
M82 ; use absolute distances for extrusion
G92 E0
G1 Z0.400 F7800.000
G1 E-2.00000 F2400.00000
G92 E0
G1 X84.827 Y85.720 F7800.000
G1 E2.00000 F2400.00000
G1 X86.583 Y84.220 E2.27422 F1800.000
G1 X88.743 Y83.405 E2.54845
G1 X90.000 Y83.286 E2.69842
G1 X110.000 Y83.286 E5.07372
G1 X112.275 Y83.683 E5.34794
G1 X114.280 Y84.827 E5.62217 F1800.000
G1 X115.780 Y86.583 E5.89639
G1 X116.595 Y88.743 E6.17062
G1 X116.714 Y90.000 E6.32059
G1 X116.714 Y110.000 E8.69589
G1 X116.317 Y112.275 E8.97011
G1 X115.173 Y114.280 E9.24434
G1 X113.417 Y115.780 E9.51856
G1 X111.257 Y116.595 E9.79279
G1 X110.000 Y116.714 E9.94275
G1 X90.000 Y116.714 E12.31806
G1 X87.725 Y116.317 E12.59228
G1 X85.720 Y115.173 E12.86651
G1 X84.220 Y113.417 E13.14073
G1 X83.405 Y111.257 E13.41496
G1 X83.286 Y110.000 E13.56492
G1 X83.286 Y90.000 E15.94023
G1 X83.683 Y87.725 E16.21445
G1 X84.797 Y85.772 E16.48155
G1 E14.48155 F2400.00000
G92 E0
G1 X108.172 Y108.172 F7800.000
G1 E2.00000 F2400.00000
G1 X91.828 Y108.172 E3.94102 F1800.000
G1 X91.828 Y91.828 E5.88205
G1 X108.172 Y91.828 E7.82307
G1 X108.172 Y108.112 E9.75696
G1 X108.886 Y108.886 F7800.000
G1 X91.114 Y108.886 E11.86762 F1800.000
G1 X91.114 Y91.114 E13.97828
G1 X108.886 Y91.114 E16.08893
G1 X108.886 Y108.826 E18.19247
G1 X109.600 Y109.600 F7800.000
G1 X90.400 Y109.600 E20.47276 F1800.000
G1 X90.400 Y90.400 E22.75305
G1 X109.600 Y90.400 E25.03334
G1 X109.600 Y109.540 E27.30651
G1 X109.254 Y109.400 F7800.000
G1 X107.736 Y92.607 F7800.000
G1 X107.393 Y92.264 E27.36602 F1800.000
G1 X106.350 Y92.264 E27.49404
G1 X107.736 Y93.650 E27.73461
G1 X107.736 Y94.694 E27.86263
G1 X105.306 Y92.264 E28.28424
G1 X104.263 Y92.264 E28.41227
G1 X107.736 Y95.737 E29.01493
G1 X107.736 Y96.780 E29.14295
G1 X103.220 Y92.264 E29.92667
G1 X102.176 Y92.264 E30.05469
G1 X107.736 Y97.824 E31.01945
G1 X107.736 Y98.867 E31.14747
G1 X101.133 Y92.264 E32.29329
G1 X100.089 Y92.264 E32.42131
G1 X107.736 Y99.911 E33.74817
G1 X107.736 Y100.954 E33.87620
G1 X99.046 Y92.264 E35.38411
G1 X98.003 Y92.264 E35.51213
G1 X107.736 Y101.997 E37.20109
G1 X107.736 Y103.041 E37.32912
G1 X96.959 Y92.264 E39.19913
G1 X95.916 Y92.264 E39.32715
G1 X107.736 Y104.084 E41.37821
G1 X107.736 Y105.128 E41.50624
G1 X94.872 Y92.264 E43.73835
G1 X93.829 Y92.264 E43.86637
G1 X107.736 Y106.171 E46.27953
G1 X107.736 Y107.214 E46.40755
G1 X92.786 Y92.264 E49.00177
G1 X92.264 Y92.786 E49.09229
G1 X107.214 Y107.736 E51.68650
G1 X106.171 Y107.736 E51.81452
G1 X92.264 Y93.829 E54.22768
G1 X92.264 Y94.872 E54.35571
G1 X105.128 Y107.736 E56.58782
G1 X104.084 Y107.736 E56.71584
G1 X92.264 Y95.916 E58.76690
G1 X92.264 Y96.959 E58.89492
G1 X103.041 Y107.736 E60.76493
G1 X101.997 Y107.736 E60.89295
G1 X92.264 Y98.003 E62.58192
G1 X92.264 Y99.046 E62.70994
G1 X100.954 Y107.736 E64.21785
G1 X99.911 Y107.736 E64.34587
G1 X92.264 Y100.089 E65.67273
G1 X92.264 Y101.133 E65.80075
G1 X98.867 Y107.736 E66.94657
G1 X97.824 Y107.736 E67.07459
G1 X92.264 Y102.176 E68.03935
G1 X92.264 Y103.220 E68.16737
G1 X96.780 Y107.736 E68.95108
G1 X95.737 Y107.736 E69.07911
G1 X92.264 Y104.263 E69.68177
G1 X92.264 Y105.306 E69.80979
G1 X94.694 Y107.736 E70.23140
G1 X93.650 Y107.736 E70.35942
G1 X92.264 Y106.350 E70.59999
G1 X92.264 Y107.393 E70.72801
G1 X92.607 Y107.736 E70.78752
M104 S200 ; set temperature
M140 S60 ; wait for bed temperature to be reached
G1 Z0.700 F7800.000
G1 X109.004 Y109.004 F7800.000
G1 X90.996 Y109.004 E71.72834 F3600.000
G1 X90.996 Y90.996 E72.66915
G1 X109.004 Y90.996 E73.60996
G1 X109.004 Y108.944 E74.54764
G1 X109.423 Y109.423 F7800.000
G1 X90.577 Y109.423 E75.53222 F3600.000
G1 X90.577 Y90.577 E76.51680
G1 X109.423 Y90.577 E77.50138
G1 X109.423 Y109.363 E78.48283
G1 X109.800 Y109.800 F7800.000
G1 X90.200 Y109.800 E79.30329 F1800.000
G1 X90.200 Y90.200 E80.12375
G1 X109.800 Y90.200 E80.94422
G1 X109.800 Y109.740 E81.76217
G1 X109.454 Y109.600 F7800.000
G1 X108.539 Y108.757 F7800.000
G1 X108.757 Y108.539 E81.77836 F1200.000
G1 X108.757 Y107.943 E81.80973
G1 X107.943 Y108.757 E81.87029
G1 X107.346 Y108.757 E81.90166
G1 X108.757 Y107.346 E82.00659
G1 X108.757 Y106.750 E82.03796
G1 X106.750 Y108.757 E82.18724
G1 X106.153 Y108.757 E82.21861
G1 X108.757 Y106.153 E82.41227
G1 X108.757 Y105.557 E82.44364
G1 X105.557 Y108.757 E82.68166
G1 X104.961 Y108.757 E82.71303
G1 X108.757 Y104.961 E82.99541
G1 X108.757 Y104.364 E83.02678
G1 X104.364 Y108.757 E83.35352
G1 X103.768 Y108.757 E83.38489
G1 X108.757 Y103.768 E83.75601
G1 X108.757 Y103.171 E83.78738
G1 X103.171 Y108.757 E84.20285
G1 X102.575 Y108.757 E84.23422
G1 X108.757 Y102.575 E84.69406
G1 X108.757 Y101.979 E84.72543
G1 X101.979 Y108.757 E85.22964
G1 X101.382 Y108.757 E85.26101
G1 X108.757 Y101.382 E85.80957
G1 X108.757 Y100.786 E85.84094
G1 X100.786 Y108.757 E86.43388
G1 X100.189 Y108.757 E86.46525
G1 X108.757 Y100.189 E87.10255
G1 X108.757 Y99.593 E87.13392
G1 X99.593 Y108.757 E87.81558
G1 X98.997 Y108.757 E87.84695
G1 X108.757 Y98.997 E88.57297
G1 X108.757 Y98.400 E88.60434
G1 X98.400 Y108.757 E89.37474
G1 X97.804 Y108.757 E89.40611
G1 X108.757 Y97.804 E90.22086
G1 X108.757 Y97.207 E90.25223
G1 X97.207 Y108.757 E91.11135
G1 X96.611 Y108.757 E91.14272
G1 X108.757 Y96.611 E92.04621
G1 X108.757 Y96.015 E92.07758
G1 X96.015 Y108.757 E93.02542
G1 X95.418 Y108.757 E93.05679
G1 X108.757 Y95.418 E94.04901
G1 X108.757 Y94.822 E94.08038
G1 X94.822 Y108.757 E95.11696
G1 X94.225 Y108.757 E95.14833
G1 X108.757 Y94.225 E96.22927
G1 X108.757 Y93.629 E96.26064
G1 X93.629 Y108.757 E97.38594
G1 X93.033 Y108.757 E97.41731
G1 X108.757 Y93.033 E98.58698
G1 X108.757 Y92.436 E98.61836
G1 X92.436 Y108.757 E99.83239
G1 X91.840 Y108.757 E99.86376
G1 X108.757 Y91.840 E101.12216
G1 X108.737 Y91.263 E101.15250
G1 X91.263 Y108.737 E102.45229
G1 X91.243 Y108.160 E102.48262
G1 X108.160 Y91.243 E103.74102
G1 X107.564 Y91.243 E103.77239
G1 X91.243 Y107.564 E104.98643
G1 X91.243 Y106.967 E105.01780
G1 X106.967 Y91.243 E106.18747
G1 X106.371 Y91.243 E106.21884
G1 X91.243 Y106.371 E107.34414
G1 X91.243 Y105.775 E107.37552
G1 X105.775 Y91.243 E108.45646
G1 X105.178 Y91.243 E108.48783
G1 X91.243 Y105.178 E109.52440
G1 X91.243 Y104.582 E109.55578
G1 X104.582 Y91.243 E110.54799
G1 X103.985 Y91.243 E110.57936
G1 X91.243 Y103.985 E111.52721
G1 X91.243 Y103.389 E111.55858
G1 X103.389 Y91.243 E112.46206
G1 X102.793 Y91.243 E112.49343
G1 X91.243 Y102.793 E113.35255
G1 X91.243 Y102.196 E113.38392
G1 X102.196 Y91.243 E114.19868
G1 X101.600 Y91.243 E114.23005
G1 X91.243 Y101.600 E115.00044
G1 X91.243 Y101.003 E115.03181
G1 X101.003 Y91.243 E115.75783
G1 X100.407 Y91.243 E115.78920
G1 X91.243 Y100.407 E116.47087
G1 X91.243 Y99.811 E116.50224
G1 X99.811 Y91.243 E117.13953
G1 X99.214 Y91.243 E117.17090
G1 X91.243 Y99.214 E117.76384
G1 X91.243 Y98.618 E117.79521
G1 X98.618 Y91.243 E118.34378
G1 X98.021 Y91.243 E118.37515
G1 X91.243 Y98.021 E118.87935
G1 X91.243 Y97.425 E118.91072
G1 X97.425 Y91.243 E119.37056
G1 X96.829 Y91.243 E119.40193
G1 X91.243 Y96.829 E119.81741
G1 X91.243 Y96.232 E119.84878
G1 X96.232 Y91.243 E120.21989
G1 X95.636 Y91.243 E120.25126
G1 X91.243 Y95.636 E120.57800
G1 X91.243 Y95.039 E120.60937
G1 X95.039 Y91.243 E120.89176
G1 X94.443 Y91.243 E120.92313
G1 X91.243 Y94.443 E121.16114
G1 X91.243 Y93.847 E121.19251
G1 X93.847 Y91.243 E121.38617
G1 X93.250 Y91.243 E121.41754
G1 X91.243 Y93.250 E121.56682
G1 X91.243 Y92.654 E121.59820
G1 X92.654 Y91.243 E121.70312
G1 X92.057 Y91.243 E121.73449
G1 X91.243 Y92.057 E121.79505
G1 X91.243 Y91.461 E121.82642
G1 X91.461 Y91.243 E121.84261
G1 Z1.000 F7800.000
G1 X109.004 Y109.004 F7800.000
G1 X90.996 Y109.004 E122.78343 F3600.000
G1 X90.996 Y90.996 E123.72424
G1 X109.004 Y90.996 E124.66505
G1 X109.004 Y108.944 E125.60273
G1 X109.423 Y109.423 F7800.000
G1 X90.577 Y109.423 E126.58731 F3600.000
G1 X90.577 Y90.577 E127.57189
G1 X109.423 Y90.577 E128.55647
G1 X109.423 Y109.363 E129.53792
G1 X109.800 Y109.800 F7800.000
G1 X90.200 Y109.800 E130.35838 F1800.000
G1 X90.200 Y90.200 E131.17884
G1 X109.800 Y90.200 E131.99931
G1 X109.800 Y109.740 E132.81726
G1 X109.454 Y109.600 F7800.000
G1 X108.757 Y91.461 F7800.000
G1 X108.539 Y91.243 E132.83345 F1200.000
G1 X107.943 Y91.243 E132.86482
G1 X108.757 Y92.057 E132.92538
G1 X108.757 Y92.654 E132.95675
G1 X107.346 Y91.243 E133.06168
G1 X106.750 Y91.243 E133.09305
G1 X108.757 Y93.250 E133.24234
G1 X108.757 Y93.847 E133.27371
G1 X106.153 Y91.243 E133.46736
G1 X105.557 Y91.243 E133.49873
G1 X108.757 Y94.443 E133.73675
G1 X108.757 Y95.039 E133.76812
G1 X104.961 Y91.243 E134.05050
G1 X104.364 Y91.243 E134.08187
G1 X108.757 Y95.636 E134.40862
G1 X108.757 Y96.232 E134.43999
G1 X103.768 Y91.243 E134.81110
G1 X103.171 Y91.243 E134.84247
G1 X108.757 Y96.829 E135.25794
G1 X108.757 Y97.425 E135.28931
G1 X102.575 Y91.243 E135.74915
G1 X101.979 Y91.243 E135.78052
G1 X108.757 Y98.021 E136.28473
G1 X108.757 Y98.618 E136.31610
G1 X101.382 Y91.243 E136.86467
G1 X100.786 Y91.243 E136.89604
G1 X108.757 Y99.214 E137.48897
G1 X108.757 Y99.811 E137.52034
G1 X100.189 Y91.243 E138.15764
G1 X99.593 Y91.243 E138.18901
G1 X108.757 Y100.407 E138.87067
G1 X108.757 Y101.003 E138.90204
G1 X98.997 Y91.243 E139.62807
G1 X98.400 Y91.243 E139.65944
G1 X108.757 Y101.600 E140.42983
G1 X108.757 Y102.196 E140.46120
G1 X97.804 Y91.243 E141.27595
G1 X97.207 Y91.243 E141.30732
G1 X108.757 Y102.793 E142.16644
G1 X108.757 Y103.389 E142.19781
G1 X96.611 Y91.243 E143.10130
G1 X96.015 Y91.243 E143.13267
G1 X108.757 Y103.985 E144.08052
G1 X108.757 Y104.582 E144.11189
G1 X95.418 Y91.243 E145.10410
G1 X94.822 Y91.243 E145.13547
G1 X108.757 Y105.178 E146.17205
G1 X108.757 Y105.775 E146.20342
G1 X94.225 Y91.243 E147.28436
G1 X93.629 Y91.243 E147.31573
G1 X108.757 Y106.371 E148.44103
G1 X108.757 Y106.967 E148.47241
G1 X93.033 Y91.243 E149.64208
G1 X92.436 Y91.243 E149.67345
G1 X108.757 Y107.564 E150.88748
G1 X108.757 Y108.160 E150.91885
G1 X91.840 Y91.243 E152.17725
G1 X91.263 Y91.263 E152.20759
G1 X108.737 Y108.737 E153.50738
G1 X108.160 Y108.757 E153.53771
G1 X91.243 Y91.840 E154.79611
G1 X91.243 Y92.436 E154.82748
G1 X107.564 Y108.757 E156.04152
G1 X106.967 Y108.757 E156.07289
G1 X91.243 Y93.033 E157.24256
G1 X91.243 Y93.629 E157.27393
G1 X106.371 Y108.757 E158.39924
G1 X105.775 Y108.757 E158.43061
G1 X91.243 Y94.225 E159.51155
G1 X91.243 Y94.822 E159.54292
G1 X105.178 Y108.757 E160.57950
G1 X104.582 Y108.757 E160.61087
G1 X91.243 Y95.418 E161.60308
G1 X91.243 Y96.015 E161.63445
G1 X103.985 Y108.757 E162.58230
G1 X103.389 Y108.757 E162.61367
G1 X91.243 Y96.611 E163.51715
G1 X91.243 Y97.207 E163.54852
G1 X102.793 Y108.757 E164.40764
G1 X102.196 Y108.757 E164.43901
G1 X91.243 Y97.804 E165.25377
G1 X91.243 Y98.400 E165.28514
G1 X101.600 Y108.757 E166.05553
G1 X101.003 Y108.757 E166.08690
G1 X91.243 Y98.997 E166.81293
G1 X91.243 Y99.593 E166.84430
G1 X100.407 Y108.757 E167.52596
G1 X99.811 Y108.757 E167.55733
G1 X91.243 Y100.189 E168.19463
G1 X91.243 Y100.786 E168.22600
G1 X99.214 Y108.757 E168.81893
G1 X98.618 Y108.757 E168.85030
G1 X91.243 Y101.382 E169.39887
G1 X91.243 Y101.979 E169.43024
G1 X98.021 Y108.757 E169.93444
G1 X97.425 Y108.757 E169.96581
G1 X91.243 Y102.575 E170.42565
G1 X91.243 Y103.171 E170.45702
G1 X96.829 Y108.757 E170.87250
G1 X96.232 Y108.757 E170.90387
G1 X91.243 Y103.768 E171.27498
G1 X91.243 Y104.364 E171.30635
G1 X95.636 Y108.757 E171.63309
G1 X95.039 Y108.757 E171.66446
G1 X91.243 Y104.961 E171.94685
G1 X91.243 Y105.557 E171.97822
G1 X94.443 Y108.757 E172.21623
G1 X93.847 Y108.757 E172.24760
G1 X91.243 Y106.153 E172.44126
G1 X91.243 Y106.750 E172.47263
G1 X93.250 Y108.757 E172.62192
G1 X92.654 Y108.757 E172.65329
G1 X91.243 Y107.346 E172.75821
G1 X91.243 Y107.943 E172.78958
G1 X92.057 Y108.757 E172.85014
G1 X91.461 Y108.757 E172.88151
G1 X91.243 Y108.539 E172.89771
M106 S244.8
G1 Z1.300 F7800.000
G1 X109.004 Y109.004 F7800.000
G1 X90.996 Y109.004 E173.83852 F3600.000
G1 X90.996 Y90.996 E174.77933
G1 X109.004 Y90.996 E175.72014
G1 X109.004 Y108.944 E176.65782
G1 X109.423 Y109.423 F7800.000
G1 X90.577 Y109.423 E177.64240 F3600.000
G1 X90.577 Y90.577 E178.62698
G1 X109.423 Y90.577 E179.61157
G1 X109.423 Y109.363 E180.59301
G1 X109.800 Y109.800 F7800.000
G1 X90.200 Y109.800 E181.41347 F1800.000
G1 X90.200 Y90.200 E182.23394
G1 X109.800 Y90.200 E183.05440
G1 X109.800 Y109.740 E183.87235
G1 X109.454 Y109.600 F7800.000
G1 X108.380 Y105.455 F7800.000
G1 X106.512 Y104.955 E183.97343 F4800.000
G1 X104.631 Y106.836 E184.11241
G1 X105.116 Y108.648 E184.21043
G1 X108.150 Y108.648 E184.36892
G1 X108.648 Y108.150 E184.40571
G1 X108.648 Y105.188 E184.56046
G1 X108.380 Y105.455 E184.58021
G1 X108.648 Y101.190 F7800.000
G1 X108.648 Y96.895 E184.80465 F4800.000
G1 X106.799 Y98.744 E184.94126
G1 X107.300 Y100.612 E185.04234
G1 X105.419 Y102.493 E185.18132
G1 X103.550 Y101.993 E185.28240
G1 X101.669 Y103.874 E185.42138
G1 X102.169 Y105.743 E185.52246
G1 X100.288 Y107.624 E185.66145
G1 X98.420 Y107.123 E185.76253
G1 X96.895 Y108.648 E185.87520
G1 X100.780 Y108.648 E186.07817
G1 X100.585 Y107.920 E186.11755
G1 X102.466 Y106.039 E186.25653
G1 X104.334 Y106.539 E186.35761
G1 X106.215 Y104.658 E186.49659
G1 X105.715 Y102.790 E186.59767
G1 X107.596 Y100.909 E186.73666
G1 X108.648 Y101.190 E186.79356
G1 X108.648 Y93.933 F7800.000
G1 X108.648 Y93.340 E186.82451 F4800.000
G1 X107.587 Y94.401 E186.90290
G1 X105.718 Y93.901 E187.00398
G1 X103.837 Y95.782 E187.14296
G1 X104.338 Y97.650 E187.24404
G1 X102.457 Y99.532 E187.38303
G1 X100.588 Y99.031 E187.48411
G1 X98.707 Y100.912 E187.62309
G1 X99.208 Y102.781 E187.72417
G1 X97.326 Y104.662 E187.86315
G1 X95.458 Y104.161 E187.96423
G1 X93.577 Y106.042 E188.10322
G1 X94.077 Y107.911 E188.20430
G1 X93.340 Y108.648 E188.25875
G1 X93.933 Y108.648 E188.28970
G1 X94.373 Y108.207 E188.32227
G1 X96.019 Y108.648 E188.41125
G1 X96.302 Y108.648 E188.42607
G1 X98.123 Y106.827 E188.56062
G1 X97.623 Y104.958 E188.66170
G1 X99.504 Y103.077 E188.80068
G1 X101.372 Y103.578 E188.90176
G1 X103.254 Y101.696 E189.04075
G1 X102.753 Y99.828 E189.14183
G1 X104.634 Y97.947 E189.28081
G1 X106.503 Y98.447 E189.38189
G1 X108.384 Y96.566 E189.52087
G1 X107.883 Y94.697 E189.62195
G1 X108.648 Y93.933 E189.67846
G1 X104.921 Y91.736 F7800.000
G1 X105.305 Y91.352 E189.70679 F4800.000
G1 X104.712 Y91.352 E189.73774
G1 X104.625 Y91.439 E189.74418
G1 X104.299 Y91.352 E189.76179
G1 X102.343 Y91.352 E189.86402
G1 X100.875 Y92.820 E189.97245
G1 X101.376 Y94.689 E190.07353
G1 X99.495 Y96.570 E190.21252
G1 X97.626 Y96.069 E190.31360
G1 X95.745 Y97.950 E190.45258
G1 X96.246 Y99.819 E190.55366
G1 X94.365 Y101.700 E190.69264
G1 X92.496 Y101.199 E190.79372
G1 X91.352 Y102.343 E190.87821
G1 X91.352 Y105.305 E191.03296
G1 X91.412 Y105.245 E191.03735
G1 X93.280 Y105.746 E191.13843
G1 X95.161 Y103.865 E191.27741
G1 X94.661 Y101.996 E191.37849
G1 X96.542 Y100.115 E191.51748
G1 X98.411 Y100.616 E191.61855
G1 X100.292 Y98.735 E191.75754
G1 X99.791 Y96.866 E191.85862
G1 X101.672 Y94.985 E191.99760
G1 X103.541 Y95.485 E192.09868
G1 X105.422 Y93.604 E192.23766
G1 X104.921 Y91.736 E192.33874
G1 X100.579 Y92.524 F7800.000
G1 X101.750 Y91.352 E192.42529 F4800.000
